X:572
T: De Schwarzen (271), S. 460
N: T0460
O: Luxemburg
S: Singendes Volk, Esch-Alzette, 1937 posth.]
N: Blascheid, hhh Nikolaus Perl, 1902
R: ???, Liebeslied?]
M: 2/4
L: 1/8
K: G
 | G2GB | A2A2 | GFEF | G2D2
G2GB | A2A2 | GFEF | G4
B2Bd | c4 | A2Ac | B4
G2GB | A2A2 | GFEF | G2D2
G2GB | A2A2 | GfEF | G2D2
G2GB | A2A2 | GFEF | G4
B2Bd | c4 | A2Ac | B4
G2GB | A2A2 | GFEF | G4

